src/renderer/assets/icon/open-default-icon.svg

<?xml version="1.0" encoding="UTF-8"?>
<svg width="30px" height="30px" viewBox="0 0 30 30" version="1.1" xmlns="http://www.w3.org/2000/svg" xmlns:xlink="http://www.w3.org/1999/xlink">
    <!-- Generator: Sketch 58 (84663) - https://sketch.com -->
    <title>sidebar/__button/--openLocalFIledefault-icon</title>
    <desc>Created with Sketch.</desc>
    <g id="sidebar/__button/--openLocalFIle" stroke="none" stroke-width="1" fill="none" fill-rule="evenodd">
        <path d="M20.9508687,10.5737194 L15.4401867,10.5737194 C15.1640389,10.5737194 14.939337,10.3490856 14.939337,10.0728698 L14.939337,9.32108495 C14.939337,9.01758097 14.6937098,8.77195369 14.3902058,8.77195369 L9.01274123,8.77195369 C8.70923724,8.77195369 8.46360997,9.01758097 8.46360997,9.32108495 L8.46360997,14.0656132 L7.04919455,14.0680998 C6.87709555,14.0680998 6.71513602,14.1490796 6.61112126,14.2863709 C6.50703845,14.4236282 6.47382994,14.6016816 6.52102277,14.7673498 L8.36602595,20.4313143 C8.49940439,20.9026982 8.92965191,21.2280463 9.41951142,21.2280463 L20.5632593,21.2280463 C21.0806069,21.2280463 21.5,20.8086532 21.5,20.2913056 L21.5,11.1228166 L21.5,11.1228166 C21.5,10.8193126 21.2543727,10.5737194 20.9508687,10.5737194 Z M19.9333671,16.4757691 L19.2431438,14.4605824 C19.1761144,14.2246182 18.9605313,14.0616039 18.714972,14.0616039 L10.0302428,14.0696494 L10.0302428,12.1403182 L19.9333671,12.1403182 L19.9333671,16.4757691 Z" id="icon--openLocalFile" fill="#6F7078" fill-rule="nonzero"></path>
    </g>
</svg>

<svg width="30" height="30" xmlns="http://www.w3.org/2000/svg">
    <path d="M20.95 10.574h-5.51a.501.501 0 01-.5-.501V9.32a.549.549 0 00-.55-.549H9.013a.549.549 0 00-.55.55v4.744l-1.414.002a.55.55 0 00-.528.7l1.845 5.663c.133.472.564.797 1.054.797h11.143c.518 0 .937-.42.937-.937v-9.168a.549.549 0 00-.55-.55zm-1.017 5.902l-.69-2.015a.55.55 0 00-.528-.4l-8.685.009v-1.93h9.903v4.336z" fill="#6F7078"/>
</svg>
